src/assets/img/providers-white/no_limit_city.svg

<svg width="98" height="26" viewBox="0 0 98 26" fill="none" xmlns="http://www.w3.org/2000/svg">
<g clip-path="url(#clip0_4134_9444)">
<path fill-rule="evenodd" clip-rule="evenodd" d="M90.817 3.06081L87.5445 3.06296C87.5074 3.06296 87.4719 3.04824 87.4457 3.02205C87.4195 2.99586 87.4048 2.96033 87.4048 2.92329L87.4177 0.140646C87.4177 0.103604 87.4324 0.0680778 87.4586 0.0418847C87.4848 0.0156916 87.5203 0.000976562 87.5574 0.000976562H97.2569C97.2939 0.000976562 97.3294 0.0156916 97.3556 0.0418847C97.3818 0.0680778 97.3965 0.103604 97.3965 0.140646L97.403 2.92114C97.403 2.95818 97.3883 2.99371 97.3621 3.0199C97.3359 3.0461 97.3004 3.06081 97.2633 3.06081L94.1132 3.06511C94.0762 3.06511 94.0407 3.07982 94.0145 3.10602C93.9883 3.13221 93.9736 3.16774 93.9736 3.20478L93.9607 6.3656C93.9607 6.40265 93.946 6.43817 93.9198 6.46437C93.8936 6.49056 93.858 6.50527 93.821 6.50527L91.0942 6.49883C91.0572 6.49883 91.0217 6.48411 90.9955 6.45792C90.9693 6.43173 90.9546 6.3962 90.9546 6.35916L90.9567 3.20048C90.9567 3.16344 90.942 3.12791 90.9158 3.10172C90.8896 3.07553 90.8541 3.06081 90.817 3.06081ZM37.0357 0.00307496H34.3197C34.239 0.00307496 34.1736 0.0684932 34.1736 0.149191V6.35481C34.1736 6.43551 34.239 6.50093 34.3197 6.50093H37.0357C37.1164 6.50093 37.1818 6.43551 37.1818 6.35481V0.149191C37.1818 0.0684932 37.1164 0.00307496 37.0357 0.00307496ZM27.7853 6.36998C27.2803 3.47989 24.4375 2.65262 21.8977 3.20915C20.1959 3.58304 19.1623 4.63951 18.797 6.37857C18.7798 6.46023 18.7297 6.50105 18.6466 6.50105H15.9779C15.8103 6.50105 15.7415 6.41868 15.7716 6.25394C16.4692 2.50507 18.6789 0.438683 22.4005 0.0547712C23.0222 -0.00969156 23.6955 -0.00252935 24.4203 0.0762585C27.5554 0.415763 29.7364 2.1756 30.6324 5.32998C30.7327 5.68667 30.785 6.03835 30.7893 6.38502C30.7893 6.46237 30.7513 6.50105 30.6754 6.50105H27.94C27.9029 6.50105 27.867 6.48787 27.8386 6.46387C27.8103 6.43987 27.7914 6.4066 27.7853 6.36998ZM47.483 0.00307496H50.1947C50.2766 0.00307496 50.343 0.0694557 50.343 0.15134V6.35266C50.343 6.43455 50.2766 6.50093 50.1947 6.50093H47.483C47.4011 6.50093 47.3347 6.43455 47.3347 6.35266V0.15134C47.3347 0.0694557 47.4011 0.00307496 47.483 0.00307496ZM66.0203 2.68046C67.6598 0.454343 70.0278 -0.411608 72.776 0.237318C75.6081 0.903433 77.1703 3.66029 77.3636 6.37848C77.3694 6.46013 77.3314 6.50096 77.2498 6.50096H74.4714C74.4412 6.501 74.412 6.48944 74.39 6.46865C74.3681 6.44786 74.3549 6.41943 74.3532 6.38922C74.2608 4.39302 72.9307 3.01137 70.8894 3.06938C68.8825 3.12525 67.7222 4.21038 67.4084 6.32476C67.3913 6.44222 67.3232 6.50096 67.2043 6.50096H64.5141C64.4778 6.50115 64.4427 6.48783 64.4157 6.46361C64.3887 6.43938 64.3717 6.40597 64.3679 6.36988C64.2562 5.35781 63.7813 4.28343 62.9712 3.66674C61.8689 2.82872 60.122 2.89963 59.0154 3.59798C58.1401 4.15093 57.6223 5.07848 57.4618 6.38063C57.4518 6.46085 57.406 6.50096 57.3243 6.50096H54.5395C54.5249 6.50103 54.5105 6.49801 54.4971 6.49209C54.4838 6.48617 54.4717 6.47749 54.4618 6.46658C54.452 6.45567 54.4444 6.44278 54.4396 6.42872C54.4349 6.41467 54.433 6.39975 54.4342 6.38492C54.4815 5.78757 54.5975 5.20239 54.7823 4.62938C55.5974 2.08812 57.2061 0.595445 59.6084 0.151368C62.2063 -0.329955 64.3078 0.548888 65.8312 2.67831C65.8928 2.76569 65.9559 2.76641 66.0203 2.68046ZM81.1498 0.00307496H83.8916C83.9652 0.00307496 84.0248 0.0627216 84.0248 0.136299V6.3677C84.0248 6.44128 83.9652 6.50093 83.8916 6.50093H81.1498C81.0762 6.50093 81.0166 6.44128 81.0166 6.3677V0.136299C81.0166 0.0627216 81.0762 0.00307496 81.1498 0.00307496ZM3.60745 6.39363V3.21347C3.60745 3.17773 3.62158 3.14338 3.64685 3.11771C3.67212 3.09204 3.70654 3.07706 3.74282 3.07594C4.7069 3.04729 5.61582 3.04729 6.4696 3.07594C8.40348 3.13826 9.7529 4.40603 9.73786 6.33776C9.73786 6.44663 9.7923 6.50107 9.90117 6.50107H12.643C12.739 6.50107 12.7862 6.45236 12.7848 6.35495C12.7268 3.26718 10.9798 1.21082 8.15637 0.368507C7.49885 0.172254 6.72673 0.0798567 5.84001 0.0913168C3.94767 0.118534 2.24227 0.1214 0.723811 0.099912C0.640725 0.099912 0.599182 0.141455 0.599182 0.224541V6.39363C0.599182 6.42156 0.610501 6.44834 0.63065 6.46808C0.650798 6.48783 0.678126 6.49892 0.70662 6.49892L3.50001 6.50107C3.57163 6.50107 3.60745 6.46526 3.60745 6.39363ZM3.49786 7.25304H0.708769C0.648245 7.25304 0.599182 7.30211 0.599182 7.36263V15.0939C0.599182 15.1544 0.648245 15.2035 0.708769 15.2035H3.49786C3.55838 15.2035 3.60745 15.1544 3.60745 15.0939V7.36263C3.60745 7.30211 3.55838 7.25304 3.49786 7.25304ZM24.5084 15.2722C28.7479 14.7823 31.1137 11.4668 30.8322 7.38627C30.8265 7.29888 30.7792 7.25519 30.6904 7.25519L27.9465 7.25304C27.9148 7.25321 27.8844 7.26462 27.8607 7.28515C27.837 7.30568 27.8217 7.33396 27.8175 7.36478C27.7804 7.61511 27.7822 7.86544 27.784 8.11413V8.11414C27.7866 8.46955 27.7891 8.82158 27.6779 9.16544C27.1536 10.7827 26.1322 11.7683 24.6137 12.1221C23.3617 12.4144 22.2587 12.3585 21.3046 11.9545C19.5319 11.2025 18.5993 9.42544 18.825 7.40346C18.8364 7.30461 18.7927 7.25519 18.6939 7.25519L15.9693 7.25304C15.8819 7.25304 15.831 7.29602 15.8167 7.38197C15.7537 7.76158 15.7365 8.13833 15.7651 8.51222C16.0251 11.9545 18.1503 14.6362 21.6828 15.2121C22.6054 15.3625 23.5472 15.3825 24.5084 15.2722ZM37.3151 12.3048L43.3359 12.3005C43.3537 12.3005 43.3713 12.304 43.3877 12.3108C43.4041 12.3176 43.419 12.3276 43.4316 12.3401C43.4442 12.3527 43.4542 12.3676 43.461 12.384C43.4678 12.4005 43.4713 12.4181 43.4713 12.4359L43.4627 15.2249C43.4627 15.2608 43.4484 15.2953 43.423 15.3207C43.3976 15.3461 43.3632 15.3603 43.3273 15.3603H34.3111C34.2752 15.3603 34.2408 15.3461 34.2154 15.3207C34.19 15.2953 34.1757 15.2608 34.1757 15.2249L34.1736 7.38841C34.1736 7.35251 34.1878 7.31808 34.2132 7.29269C34.2386 7.26731 34.273 7.25304 34.3089 7.25304L37.0465 7.25519C37.0824 7.25519 37.1168 7.26945 37.1422 7.29484C37.1676 7.32023 37.1818 7.35466 37.1818 7.39056L37.1797 12.1694C37.1797 12.2053 37.194 12.2397 37.2193 12.2651C37.2447 12.2905 37.2792 12.3048 37.3151 12.3048ZM47.4636 7.25304H50.2141C50.2853 7.25304 50.343 7.31076 50.343 7.38197V15.2121C50.343 15.2833 50.2853 15.341 50.2141 15.341H47.4636C47.3924 15.341 47.3347 15.2833 47.3347 15.2121V7.38197C47.3347 7.31076 47.3924 7.25304 47.4636 7.25304ZM57.2792 7.25304H54.5803C54.4949 7.25304 54.4256 7.32231 54.4256 7.40775V15.2035C54.4256 15.2889 54.4949 15.3582 54.5803 15.3582H57.2792C57.3646 15.3582 57.4339 15.2889 57.4339 15.2035V7.40775C57.4339 7.32231 57.3646 7.25304 57.2792 7.25304ZM64.5527 7.25095H67.2387C67.3419 7.25095 67.4256 7.33464 67.4256 7.43789V15.1691C67.4256 15.2724 67.3419 15.3561 67.2387 15.3561H64.5527C64.4495 15.3561 64.3658 15.2724 64.3658 15.1691V7.43789C64.3658 7.33464 64.4495 7.25095 64.5527 7.25095ZM77.1782 7.25083L74.5782 7.25537C74.4513 7.25559 74.3485 7.35871 74.3487 7.48569L74.3621 15.1267C74.3623 15.2536 74.4654 15.3564 74.5924 15.3562L77.1924 15.3516C77.3194 15.3514 77.4221 15.2483 77.4219 15.1213L77.4086 7.48035C77.4083 7.35337 77.3052 7.25061 77.1782 7.25083ZM81.1927 7.25304H83.8486C83.9447 7.25304 84.0227 7.33097 84.0227 7.42709V15.1798C84.0227 15.2759 83.9447 15.3539 83.8486 15.3539H81.1927C81.0966 15.3539 81.0187 15.2759 81.0187 15.1798V7.42709C81.0187 7.33097 81.0966 7.25304 81.1927 7.25304ZM93.7909 7.25095H91.1265C91.0315 7.25095 90.9546 7.32791 90.9546 7.42285V15.1842C90.9546 15.2791 91.0315 15.3561 91.1265 15.3561H93.7909C93.8859 15.3561 93.9628 15.2791 93.9628 15.1842V7.42285C93.9628 7.32791 93.8859 7.25095 93.7909 7.25095ZM9.88182 7.36258H12.6451C12.727 7.36258 12.7934 7.42896 12.7934 7.51084V15.1862C12.7934 15.2681 12.727 15.3345 12.6451 15.3345H9.88182C9.79994 15.3345 9.73356 15.2681 9.73356 15.1862V7.51084C9.73356 7.42896 9.79994 7.36258 9.88182 7.36258ZM24.6803 21.6326C23.0129 20.8697 22.2694 21.9635 22.4112 23.444C22.5724 25.1157 23.6983 25.0212 24.9855 24.6236C25.0571 24.6007 25.0936 24.6272 25.095 24.7031V25.4531C25.095 25.4864 25.0849 25.5189 25.0661 25.5462C25.0473 25.5734 25.0206 25.5942 24.9898 25.6056C24.4726 25.8033 23.929 25.8828 23.3588 25.8441C21.642 25.7281 21.1306 24.3658 21.2122 22.8617C21.238 22.409 21.3397 22.0036 21.5174 21.6455C22.1749 20.3261 23.8294 20.0855 25.1144 20.6957C25.219 20.7444 25.2505 20.8232 25.2089 20.9321L24.9919 21.5058C24.9332 21.6591 24.8293 21.7013 24.6803 21.6326ZM39.1501 20.47H40.1557C40.2044 20.47 40.2438 20.5095 40.2438 20.5581V25.6979C40.2438 25.7466 40.2044 25.786 40.1557 25.786H39.1501C39.1015 25.786 39.062 25.7466 39.062 25.6979V20.5581C39.062 20.5095 39.1015 20.47 39.1501 20.47ZM56.5207 21.4993V25.7173C56.5207 25.735 56.5137 25.752 56.5012 25.7644C56.4887 25.7769 56.4717 25.784 56.4541 25.784L55.4055 25.7861C55.3878 25.7861 55.3709 25.7791 55.3584 25.7666C55.3459 25.7541 55.3389 25.7372 55.3389 25.7195V21.4972C55.3389 21.4795 55.3318 21.4626 55.3194 21.4501C55.3069 21.4376 55.2899 21.4306 55.2723 21.4306L54.0109 21.4349C53.9933 21.4349 53.9763 21.4278 53.9638 21.4154C53.9513 21.4029 53.9443 21.3859 53.9443 21.3683L53.9422 20.5345C53.9422 20.5169 53.9492 20.4999 53.9617 20.4874C53.9742 20.4749 53.9911 20.4679 54.0088 20.4679H57.9045C57.9221 20.4679 57.9391 20.4749 57.9516 20.4874C57.9641 20.4999 57.9711 20.5169 57.9711 20.5345V21.3683C57.9711 21.3859 57.9641 21.4029 57.9516 21.4154C57.9391 21.4278 57.9221 21.4349 57.9045 21.4349L56.5873 21.4327C56.5696 21.4327 56.5527 21.4397 56.5402 21.4522C56.5277 21.4647 56.5207 21.4817 56.5207 21.4993ZM73.2693 22.4834C73.2587 22.4765 73.25 22.4669 73.2445 22.4555L72.2775 20.513C72.2618 20.483 72.2367 20.4679 72.2023 20.4679L71.0184 20.4701C70.9869 20.4701 70.9783 20.4844 70.9926 20.513C71.4983 21.4843 72.014 22.4412 72.5397 23.3838C72.6944 23.6588 72.7667 23.9289 72.7567 24.1939C72.7395 24.6652 72.7359 25.1658 72.746 25.6959C72.7474 25.756 72.7782 25.7861 72.8384 25.7861L73.8118 25.784C73.849 25.784 73.8683 25.7653 73.8698 25.7281C73.8755 25.1966 73.8741 24.6609 73.8655 24.1208C73.8612 23.863 73.9335 23.6037 74.0825 23.343C74.6297 22.3889 75.1411 21.4435 75.6167 20.5066C75.6282 20.4837 75.621 20.4722 75.5952 20.4722L74.4263 20.4679C74.4186 20.468 74.4111 20.4703 74.4046 20.4745C74.3982 20.4787 74.393 20.4846 74.3898 20.4916L73.367 22.4577C73.361 22.4689 73.3521 22.4782 73.3412 22.4846C73.3302 22.491 73.3177 22.4943 73.3051 22.4941C73.2924 22.4939 73.28 22.4902 73.2693 22.4834Z" fill="white"/>
</g>
<defs>
<clipPath id="clip0_4134_9444">
<rect width="96.9091" height="26" fill="white" transform="translate(0.545471 0.000976562)"/>
</clipPath>
</defs>
</svg>

<svg width="98" height="26" fill="none" xmlns="http://www.w3.org/2000/svg"><g clip-path="url(#a)"><path fill-rule="evenodd" clip-rule="evenodd" d="m90.817 3.06-3.272.003a.14.14 0 0 1-.14-.14l.013-2.782a.14.14 0 0 1 .14-.14h9.699a.14.14 0 0 1 .14.14l.006 2.78a.14.14 0 0 1-.14.14l-3.15.004a.14.14 0 0 0-.14.14l-.012 3.16a.14.14 0 0 1-.14.14L91.094 6.5a.14.14 0 0 1-.14-.14l.003-3.159a.14.14 0 0 0-.14-.14ZM37.036.004H34.32a.146.146 0 0 0-.146.146v6.206c0 .08.065.146.146.146h2.716c.08 0 .146-.065.146-.146V.149a.146.146 0 0 0-.146-.146Zm-9.25 6.367c-.506-2.89-3.349-3.717-5.888-3.16-1.702.373-2.736 1.43-3.101 3.169-.017.081-.067.122-.15.122h-2.67c-.167 0-.236-.082-.205-.247.697-3.749 2.907-5.815 6.629-6.2a9.58 9.58 0 0 1 2.02.022c3.134.34 5.315 2.1 6.211 5.254.1.357.153.708.157 1.055 0 .077-.038.116-.114.116H27.94a.157.157 0 0 1-.155-.131ZM47.482.003h2.712c.082 0 .148.066.148.148v6.202a.148.148 0 0 1-.148.148h-2.712a.148.148 0 0 1-.148-.148V.15c0-.082.066-.148.148-.148ZM66.02 2.68C67.66.454 70.028-.412 72.776.237c2.832.666 4.394 3.423 4.588 6.141.005.082-.033.123-.114.123H74.47a.118.118 0 0 1-.118-.112c-.092-1.996-1.422-3.378-3.464-3.32-2.007.056-3.167 1.141-3.48 3.256-.018.117-.086.176-.205.176h-2.69a.146.146 0 0 1-.146-.131c-.112-1.012-.587-2.087-1.397-2.703-1.102-.838-2.849-.767-3.956-.069-.875.553-1.393 1.48-1.553 2.783-.01.08-.056.12-.138.12H54.54a.104.104 0 0 1-.077-.034.11.11 0 0 1-.028-.082 7.674 7.674 0 0 1 .348-1.756c.815-2.54 2.424-4.034 4.826-4.478 2.598-.481 4.7.398 6.223 2.527.062.088.125.088.19.002ZM81.15.003h2.742c.073 0 .133.06.133.133v6.232c0 .073-.06.133-.133.133H81.15a.133.133 0 0 1-.133-.133V.136c0-.073.06-.133.133-.133ZM3.607 6.393v-3.18a.14.14 0 0 1 .135-.138 43.225 43.225 0 0 1 2.728 0c1.933.063 3.283 1.331 3.268 3.263 0 .109.054.163.163.163h2.742c.096 0 .143-.049.142-.146C12.727 3.267 10.98 1.21 8.156.369 7.5.172 6.726.079 5.84.09 3.948.12 2.242.121.724.1.64.1.599.14.599.225v6.169c0 .028.012.054.032.074.02.02.047.03.076.03l2.793.003c.072 0 .107-.036.107-.107Zm-.11.86H.71a.11.11 0 0 0-.11.11v7.73c0 .061.05.11.11.11h2.789c.06 0 .11-.049.11-.11v-7.73a.11.11 0 0 0-.11-.11Zm21.011 8.02c4.24-.49 6.606-3.806 6.324-7.887-.006-.087-.053-.13-.142-.13l-2.744-.003a.132.132 0 0 0-.085.032.128.128 0 0 0-.044.08c-.037.25-.035.5-.033.75.003.355.005.707-.106 1.05-.524 1.618-1.546 2.603-3.064 2.957-1.252.292-2.355.236-3.31-.168-1.772-.752-2.705-2.529-2.479-4.55.011-.1-.032-.149-.131-.149l-2.725-.002c-.087 0-.138.043-.152.129-.063.38-.08.756-.052 1.13.26 3.442 2.385 6.124 5.918 6.7.922.15 1.864.17 2.825.06Zm12.807-2.968 6.02-.005a.135.135 0 0 1 .136.136l-.008 2.789a.136.136 0 0 1-.136.135h-9.016a.135.135 0 0 1-.135-.135l-.002-7.837a.135.135 0 0 1 .135-.135l2.738.002a.135.135 0 0 1 .135.136l-.002 4.778a.136.136 0 0 0 .135.136Zm10.149-5.052h2.75c.071 0 .129.058.129.129v7.83a.129.129 0 0 1-.129.129h-2.75a.129.129 0 0 1-.13-.129v-7.83c0-.071.058-.129.13-.129Zm9.815 0H54.58a.155.155 0 0 0-.154.155v7.795c0 .086.069.155.154.155h2.7c.085 0 .154-.07.154-.155V7.409a.155.155 0 0 0-.155-.155Zm7.274-.002h2.686c.103 0 .187.084.187.187v7.731a.187.187 0 0 1-.187.187h-2.686a.187.187 0 0 1-.187-.187V7.438c0-.103.084-.187.187-.187Zm12.625 0-2.6.004a.23.23 0 0 0-.23.23l.014 7.642c0 .127.103.23.23.23l2.6-.005a.23.23 0 0 0 .23-.23l-.013-7.642a.23.23 0 0 0-.23-.23Zm4.015.002h2.656c.096 0 .174.078.174.174v7.753a.174.174 0 0 1-.174.174h-2.656a.174.174 0 0 1-.174-.174V7.427c0-.096.078-.174.174-.174Zm12.598-.002h-2.665a.172.172 0 0 0-.171.172v7.761c0 .095.076.172.171.172h2.665a.172.172 0 0 0 .172-.172V7.423a.172.172 0 0 0-.172-.172Zm-83.91.112h2.764c.082 0 .148.066.148.148v7.675a.148.148 0 0 1-.148.149H9.882a.148.148 0 0 1-.148-.149V7.511c0-.082.066-.148.148-.148Zm14.8 14.27c-1.668-.763-2.412.33-2.27 1.811.161 1.672 1.287 1.577 2.574 1.18.072-.023.109.003.11.08v.75a.164.164 0 0 1-.105.152 3.794 3.794 0 0 1-1.631.238c-1.717-.116-2.228-1.478-2.147-2.982.026-.453.128-.858.305-1.216.658-1.32 2.312-1.56 3.597-.95.105.048.136.127.095.236l-.217.574c-.059.153-.163.195-.312.127Zm14.47-1.163h1.005c.048 0 .088.04.088.088v5.14c0 .049-.04.088-.088.088H39.15a.088.088 0 0 1-.088-.088v-5.14c0-.049.04-.088.088-.088Zm17.37 1.03v4.217a.066.066 0 0 1-.067.067l-1.048.002a.067.067 0 0 1-.067-.067v-4.222a.067.067 0 0 0-.067-.066l-1.261.004a.067.067 0 0 1-.067-.067l-.002-.833a.067.067 0 0 1 .067-.067h3.895a.067.067 0 0 1 .067.067v.833a.067.067 0 0 1-.066.067l-1.318-.002a.067.067 0 0 0-.066.066Zm16.748.983a.07.07 0 0 1-.025-.027l-.966-1.943a.08.08 0 0 0-.076-.045l-1.184.002c-.031 0-.04.014-.025.043.505.971 1.021 1.928 1.547 2.87.154.276.227.546.217.81-.017.472-.021.973-.011 1.503.001.06.032.09.092.09l.974-.002c.037 0 .056-.019.058-.056.005-.531.004-1.067-.005-1.607a1.505 1.505 0 0 1 .218-.778c.547-.954 1.058-1.9 1.534-2.836.011-.023.004-.035-.022-.035l-1.169-.004a.04.04 0 0 0-.036.024l-1.023 1.966a.069.069 0 0 1-.098.025Z" fill="#fff"/></g><defs><clipPath id="a"><path fill="#fff" transform="translate(.545 .001)" d="M0 0h96.909v26H0z"/></clipPath></defs></svg>
